flaticon/hand-gestures/tap-54.svg

<svg xmlns="http://www.w3.org/2000/svg" width="32" height="32" viewBox="0 0 24 24">
    <path d="M 12 3.199219 C 8.679688 3.199219 6 5.878906 6 9.199219 L 6 18 C 6 21.320312 8.679688 24 12 24 C 15.320312 24 18 21.320312 18 18 L 18 9.199219 C 18 5.878906 15.320312 3.199219 12 3.199219 Z M 17.199219 18 C 17.199219 20.878906 14.878906 23.199219 12 23.199219 C 9.121094 23.199219 6.800781 20.878906 6.800781 18 L 6.800781 9.199219 C 6.800781 6.320312 9.121094 4 12 4 C 14.878906 4 17.199219 6.320312 17.199219 9.199219 Z M 17.199219 18"/>
    <path d="M12 4.800781C9.558594 4.800781 7.601562 6.761719 7.601562 9.199219L7.601562 13.601562 16.398438 13.601562 16.398438 9.199219C16.398438 6.761719 14.441406 4.800781 12 4.800781zM15.601562 12.800781L8.398438 12.800781 8.398438 9.199219C8.398438 7.199219 10 5.601562 12 5.601562 14 5.601562 15.601562 7.199219 15.601562 9.199219zM16 16.398438L8 16.398438C7.761719 16.398438 7.601562 16.558594 7.601562 16.800781 7.601562 17.039062 7.761719 17.199219 8 17.199219L16 17.199219C16.238281 17.199219 16.398438 17.039062 16.398438 16.800781 16.398438 16.558594 16.238281 16.398438 16 16.398438zM16 18L8 18C7.761719 18 7.601562 18.160156 7.601562 18.398438 7.601562 18.640625 7.761719 18.800781 8 18.800781L16 18.800781C16.238281 18.800781 16.398438 18.640625 16.398438 18.398438 16.398438 18.160156 16.238281 18 16 18zM6.800781 2.398438C6.878906 2.398438 6.960938 2.398438 7.039062 2.359375 7.238281 2.238281 7.441406 2.078125 7.679688 1.960938 7.878906 1.839844 7.960938 1.601562 7.839844 1.398438 7.71875 1.199219 7.480469 1.121094 7.28125 1.238281 7.039062 1.359375 6.800781 1.519531 6.558594 1.679688 6.359375 1.800781 6.320312 2.078125 6.441406 2.238281 6.519531 2.359375 6.679688 2.398438 6.800781 2.398438zM8.921875 1.320312C8.960938 1.320312 9 1.320312 9.078125 1.320312 9.320312 1.199219 9.558594 1.160156 9.800781 1.078125 10 1.039062 10.121094.800781 10.078125.558594 10.039062.359375 9.800781.238281 9.601562.28125 9.320312.359375 9.078125.441406 8.800781.519531 8.601562.601562 8.480469.839844 8.558594 1.039062 8.601562 1.199219 8.761719 1.320312 8.921875 1.320312zM15.761719 1.640625C16 1.761719 16.238281 1.878906 16.441406 2 16.519531 2.039062 16.558594 2.039062 16.640625 2.039062 16.761719 2.039062 16.921875 1.960938 16.960938 1.878906 17.039062 1.679688 17 1.441406 16.800781 1.320312 16.558594 1.160156 16.320312 1.039062 16.078125.921875 15.878906.839844 15.640625.921875 15.558594 1.121094 15.480469 1.320312 15.558594 1.558594 15.761719 1.640625zM2.800781 9.078125C2.601562 9.078125 2.398438 9.28125 2.398438 9.480469L2.398438 9.601562C2.398438 9.800781 2.558594 10 2.800781 10 3 10 3.199219 9.839844 3.199219 9.601562L3.199219 9.480469C3.199219 9.28125 3.039062 9.078125 2.800781 9.078125zM11.238281.839844C11.519531.800781 11.761719.800781 12 .800781L12.078125.800781C12.28125.800781 12.480469.640625 12.480469.398438 12.480469.199219 12.320312 0 12.078125 0L12 0C11.761719 0 11.480469 0 11.199219.0390625 11 .078125 10.839844.238281 10.839844.480469 10.839844.679688 11.039062.839844 11.238281.839844zM13.558594.960938C13.839844 1 14.078125 1.039062 14.320312 1.121094 14.359375 1.121094 14.398438 1.121094 14.441406 1.121094 14.601562 1.121094 14.761719 1 14.800781.839844 14.878906.601562 14.761719.398438 14.519531.359375 14.28125.28125 14 .199219 13.71875.160156 13.480469.121094 13.28125.28125 13.238281.480469 13.199219.71875 13.359375.921875 13.558594.960938zM20.960938 7.640625C21.160156 7.601562 21.28125 7.359375 21.238281 7.160156 21.160156 6.878906 21.078125 6.640625 21 6.359375 20.921875 6.160156 20.679688 6.039062 20.480469 6.121094 20.28125 6.199219 20.160156 6.441406 20.238281 6.640625 20.320312 6.878906 20.398438 7.121094 20.480469 7.359375 20.558594 7.519531 20.71875 7.640625 20.878906 7.640625 20.921875 7.640625 20.960938 7.640625 20.960938 7.640625zM18.199219 2.28125C18.039062 2.121094 17.800781 2.160156 17.640625 2.320312 17.480469 2.480469 17.519531 2.71875 17.679688 2.878906 17.878906 3.039062 18.078125 3.199219 18.238281 3.398438 18.320312 3.480469 18.398438 3.519531 18.519531 3.519531 18.640625 3.519531 18.71875 3.480469 18.800781 3.398438 18.960938 3.238281 18.960938 3 18.800781 2.839844 18.601562 2.640625 18.398438 2.441406 18.199219 2.28125zM3.238281 6.71875C3.039062 6.679688 2.800781 6.800781 2.761719 7 2.679688 7.238281 2.601562 7.519531 2.558594 7.800781 2.519531 8.039062 2.679688 8.238281 2.878906 8.28125 2.921875 8.28125 2.921875 8.28125 2.960938 8.28125 3.160156 8.28125 3.320312 8.160156 3.359375 8 3.398438 7.71875 3.441406 7.480469 3.519531 7.238281 3.601562 7 3.441406 6.800781 3.238281 6.71875zM20.320312 4.800781C20.199219 4.558594 20.039062 4.320312 19.878906 4.078125 19.761719 3.921875 19.519531 3.878906 19.320312 4 19.121094 4.121094 19.078125 4.398438 19.199219 4.558594 19.320312 4.761719 19.480469 4.960938 19.601562 5.199219 19.679688 5.320312 19.839844 5.398438 19.960938 5.398438 20.039062 5.398438 20.121094 5.398438 20.160156 5.359375 20.359375 5.238281 20.441406 5 20.320312 4.800781zM21.558594 8.761719C21.519531 8.558594 21.359375 8.359375 21.121094 8.398438 20.921875 8.441406 20.761719 8.601562 20.761719 8.839844 20.800781 9.078125 20.800781 9.359375 20.800781 9.601562 20.800781 9.839844 20.960938 10 21.199219 10 21.441406 10 21.601562 9.839844 21.601562 9.601562 21.601562 9.320312 21.601562 9.039062 21.558594 8.761719zM4.320312 4.601562C4.121094 4.519531 3.878906 4.558594 3.761719 4.761719 3.601562 5 3.480469 5.238281 3.359375 5.480469 3.28125 5.679688 3.359375 5.921875 3.558594 6 3.601562 6.039062 3.679688 6.039062 3.71875 6.039062 3.839844 6.039062 4 5.921875 4.121094 5.839844 4.238281 5.601562 4.359375 5.359375 4.480469 5.160156 4.558594 4.960938 4.519531 4.71875 4.320312 4.601562zM5.28125 2.761719C5.078125 2.960938 4.878906 3.160156 4.71875 3.359375 4.558594 3.519531 4.601562 3.761719 4.761719 3.921875 4.839844 4 4.921875 4 5 4 5.121094 4 5.238281 3.960938 5.320312 3.878906 5.480469 3.679688 5.640625 3.480469 5.839844 3.320312 6 3.160156 6 2.921875 5.839844 2.761719 5.679688 2.601562 5.441406 2.601562 5.28125 2.761719zM5.28125 2.761719"/>
</svg>

<svg xmlns="http://www.w3.org/2000/svg" width="32" height="32" viewBox="0 0 24 24">
    <path d="M12 3.2c-3.32 0-6 2.679-6 6V18c0 3.32 2.68 6 6 6s6-2.68 6-6V9.2c0-3.321-2.68-6-6-6zM17.2 18a5.19 5.19 0 0 1-5.2 5.2A5.19 5.19 0 0 1 6.8 18V9.2A5.19 5.19 0 0 1 12 4a5.19 5.19 0 0 1 5.2 5.2zm0 0"/>
    <path d="M12 4.8a4.385 4.385 0 0 0-4.398 4.4v4.402h8.796V9.199A4.385 4.385 0 0 0 12 4.801zm3.602 8H8.398V9.2c0-2 1.602-3.598 3.602-3.598 2 0 3.602 1.597 3.602 3.597zm0 0M16 16.398H8c-.238 0-.398.16-.398.403 0 .238.16.398.398.398h8c.238 0 .398-.16.398-.398 0-.242-.16-.403-.398-.403zm0 0M16 18H8c-.238 0-.398.16-.398.398 0 .243.16.403.398.403h8c.238 0 .398-.16.398-.403 0-.238-.16-.398-.398-.398zm0 0M6.8 2.398c.079 0 .16 0 .24-.039.198-.12.401-.28.64-.398.199-.121.28-.36.16-.563-.121-.199-.36-.277-.559-.16-.242.121-.48.282-.722.442a.398.398 0 0 0-.118.558c.079.121.239.16.36.16zm0 0M8.922 1.32h.156c.242-.12.48-.16.723-.242.199-.039.32-.277.277-.52-.039-.199-.277-.32-.476-.277C9.32.36 9.078.441 8.8.52c-.2.082-.32.32-.242.52.043.16.203.28.363.28zm0 0M15.762 1.64c.238.122.476.239.68.36.078.04.117.04.199.04.12 0 .28-.08.32-.161.078-.2.039-.438-.16-.559a6.037 6.037 0 0 0-.723-.398c-.2-.082-.437 0-.52.2-.078.198 0 .437.204.519zm0 0M2.8 9.078c-.198 0-.402.203-.402.402v.122a.4.4 0 0 0 .801 0V9.48c0-.199-.16-.402-.398-.402zm0 0M11.238.84C11.52.8 11.762.8 12 .8h.078a.4.4 0 0 0 0-.8H12c-.238 0-.52 0-.8.04-.2.038-.36.198-.36.44 0 .2.2.36.398.36zm0 0M13.559.96c.28.04.52.08.761.161h.121c.16 0 .32-.121.36-.281.078-.238-.04-.442-.281-.48a4.706 4.706 0 0 0-.801-.2.42.42 0 0 0-.48.32.417.417 0 0 0 .32.48zm0 0M20.96 7.64c.2-.038.321-.28.278-.48-.078-.281-.16-.52-.238-.8-.078-.2-.32-.32-.52-.239-.199.078-.32.32-.242.52.082.238.16.48.242.718.079.16.239.282.399.282h.082zm0 0M18.2 2.281c-.16-.16-.4-.12-.56.04-.16.16-.12.398.04.558.199.16.398.32.558.52.082.081.16.12.282.12.12 0 .199-.039.28-.12a.385.385 0 0 0 0-.56c-.198-.198-.402-.398-.6-.558zm0 0M3.238 6.719c-.199-.04-.437.082-.476.281-.082.238-.16.52-.203.8a.42.42 0 0 0 .32.481h.082c.2 0 .36-.12.398-.281.04-.281.082-.52.16-.762.083-.238-.078-.437-.28-.52zm0 0M20.32 4.8c-.12-.241-.28-.48-.441-.722-.117-.156-.36-.2-.559-.078-.199.121-.242.398-.12.559.12.203.28.402.402.64.078.121.238.2.359.2.078 0 .16 0 .2-.04.198-.12.28-.359.16-.558zm0 0M21.559 8.762c-.04-.203-.2-.403-.438-.364a.44.44 0 0 0-.36.442c.04.238.04.52.04.762 0 .238.16.398.398.398.242 0 .403-.16.403-.398 0-.282 0-.563-.043-.84zm0 0M4.32 4.602c-.199-.082-.441-.043-.558.16-.16.238-.282.476-.403.718-.078.2 0 .442.2.52.043.04.12.04.16.04.12 0 .281-.118.402-.2a9.07 9.07 0 0 1 .36-.68c.078-.2.039-.441-.16-.558zm0 0M5.281 2.762c-.203.199-.402.398-.562.597-.16.16-.117.403.043.563C4.84 4 4.922 4 5 4c.121 0 .238-.04.32-.121.16-.2.32-.399.52-.559a.385.385 0 0 0 0-.558.385.385 0 0 0-.559 0zm0 0"/>
</svg>
